X:1
T:Pod Moskovniye Vechera
L:1/8
M:2/4
I:linebreak $
K:Gmin
V:1 treble 
V:1
"Gm" GB dB |"Cm" c2 BA |"D7" d2 c2 |"Gm" G4 |"Bb" Bd ff |"Eb" g2"F7" fe |"Bb" d4 |: %7
"A7" =e2"D7" ^f2 |"Gm" ag d2- | d A2 G |"Cm" dc e2- | e2 fe |$"Gm" d2 cB |"D7" d2 c2 |1"Gm" G4 :|2 %15
"Gm" [Bg]4- | [Bg] z3 |] %17
